X: 1
T: The Sailor's Wife
R: jig
M: 6/8
L: 1/8
K: Gmaj
B|:"Em"EFG F2E | e2f g2a | bag fed | "G"Bd"D"B AFD |
"Em"EFG F2E | e2f g2a | ba"B7"g fe^d | "Em"e3 e3 :|
|:"G"gab gab | gab bag | "D"fda fda | fg"B7"a agf |
"Em"gab bag | "D"fga agf | "Em"ef"B7"g fe^d | "Em"e3 e3 :|


Tune 3140	Setting 25443

